!!!!SEGMENT: Ric1002a-Requiem-Introit.krn
!!!id: Ric1002a
!!!AGN: Mass; Introit
!!!SCT: Elzinga (1979)
!!!voices: 6
!!!COM: Jean Richafort
!!!OTL: Introit
!!!OPR: Requiem
**kern	**kern	**kern	**kern	**kern	**kern
*part6	*part5	*part4	*part3	*part2	*part1
*staff6	*staff5	*staff4	*staff3	*staff2	*staff1
*I"Bassus	*I"Tenor III	*I"Tenor II	*I"Tenor I	*I"Altus	*I"Superius
*I'B	*I'T. III	*I'T. II	*I'T. I	*I'A	*I'S
*clefF4	*clefGv2	*clefGv2	*clefGv2	*clefGv2	*clefG2
*k[b-]	*k[b-]	*k[b-]	*k[b-]	*k[b-]	*k[b-]
*F:	*F:	*F:	*F:	*F:	*F:
*M2/1	*M2/1	*M2/1	*M2/1	*M2/1	*M2/1
*met(C|)	*met(C|)	*met(C|)	*met(C|)	*met(C|)	*met(C|)
!!section: Introit
!!!OMD: Introit
=1	=1	=1	=1	=1	=1
!	!LO:TX:a:t=Canon&colon; tenor III/tenor II at the fifth	!	!	!	!
1r	0r	0r	1.F	0c	[0f
[1F	.	.	.	.	.
.	.	.	2G	.	.
=2	=2	=2	=2	=2	=2
2F]	0r	0r	2A	1d	0f]
2G	.	.	2B-y	.	.
2.A	.	.	[1c	[1f	.
4B-y	.	.	.	.	.
=3	=3	=3	=3	=3	=3
0G	0r	0r	2c]	2f]	0g
.	.	.	4B-y	4e	.
.	.	.	4A	4d	.
.	.	.	1B-y	1e	.
=4	=4	=4	=4	=4	=4
1F	0F	0r	0c	[0f	0a
[1FF	.	.	.	.	.
=5	=5	=5	=5	=5	=5
2FF]	1F	0r	0C	1.f]	1.a
2GG	.	.	.	.	.
1AA	1F	.	.	.	.
.	.	.	.	2e	4g
.	.	.	.	.	4a
=6	=6	=6	=6	=6	=6
1BB-y	0G	0r	1D	1d	2g
.	.	.	.	.	1f
1C	.	.	1E	1c	.
.	.	.	.	.	2e
=7	=7	=7	=7	=7	=7
0FF	0F	0c	[0C	0f	1f
.	.	.	.	.	[1cc
=8	=8	=8	=8	=8	=8
0r	[0G	1c	0C]	1.e	2cc]
.	.	.	.	.	4b-y
.	.	.	.	.	4a
.	.	1c	.	.	2g
.	.	.	.	4d	[2cc
.	.	.	.	4c	.
=9	=9	=9	=9	=9	=9
0r	0G]	0d	0r	0g	2cc]
.	.	.	.	.	4bni
.	.	.	.	.	4a
.	.	.	.	.	1bni
=10	=10	=10	=10	=10	=10
1r	[0A	0c	1.c	1e	1cc
[1F	.	.	.	1c	1r
.	.	.	2B-y	.	.
=11	=11	=11	=11	=11	=11
2F]	0A]	[0d	2A	1r	[0f
2E	.	.	2G	.	.
2D	.	.	2F	1A	.
2C	.	.	2E	.	.
=12	=12	=12	=12	=12	=12
0BB-y	0r	0d]	1D	0B-y	1f]
.	.	.	1d	.	1g
=13	=13	=13	=13	=13	=13
[0AA	[0A	[0e	1.c	1c	[0a
.	.	.	.	2.A	.
.	.	.	2B-y	.	.
.	.	.	.	4B-y	.
=14	=14	=14	=14	=14	=14
0AA]	1A]	0e]	2A	2c	0a]
.	.	.	4G	1d	.
.	.	.	4F	.	.
.	1A	.	2E	.	.
.	.	.	2A	2c	.
=15	=15	=15	=15	=15	=15
1r	0B-y	0r	1r	0d	1f
1GG	.	.	1D	.	[1g
=16	=16	=16	=16	=16	=16
[0C	[0G	[0e	1E	[0c	2g]
.	.	.	.	.	2f
.	.	.	[1G	.	2e
.	.	.	.	.	2d
=17	=17	=17	=17	=17	=17
0C]	0G]	1e]	2G]	0c_	1c
.	.	.	2F	.	.
.	.	1e	2E	.	[1cc
.	.	.	2D	.	.
=18	=18	=18	=18	=18	=18
1AA	[0F	0f	1C	0c]	2cc]
.	.	.	.	.	2b-y
*^	*	*	*	*	*
1FF	1FF	.	.	[1F	.	2a
.	.	.	.	.	.	2g
*v	*v	*	*	*	*	*
=19	=19	=19	=19	=19	=19
2.BB-y	0F_	[0d	2F]	2r	1f
.	.	.	2D	1B-y	.
4AA	.	.	.	.	.
4BB-y	.	.	1D	.	1b-y
4C	.	.	.	.	.
[2D	.	.	.	4A	.
.	.	.	.	4G	.
=20	=20	=20	=20	=20	=20
4D]	0F]	0d]	1r	2F	2a
4C	.	.	.	.	.
4BB-y	.	.	.	2.f	2.b-y
4AA	.	.	.	.	.
1BB-y	.	.	1D	.	.
.	.	.	.	4d	4a
.	.	.	.	2f	4b-y
.	.	.	.	.	4g
=21	=21	=21	=21	=21	=21
[0C	0r	[0c	1E	1e	2a
.	.	.	.	.	2.g
.	.	.	2C	2.e	.
.	.	.	.	.	4e
.	.	.	[2c	.	[2a
.	.	.	.	4d	.
=22	=22	=22	=22	=22	=22
0C]	0r	0c_	4c]	2e	4a]
.	.	.	4B-y	.	4g
.	.	.	2A	2.c	1f
.	.	.	1G	.	.
.	.	.	.	4B-y	.
.	.	.	.	2G	2e
=23	=23	=23	=23	=23	=23
0FF	0r	0c]	2r	1.A	[0f
.	.	.	2F	.	.
.	.	.	2.A	.	.
.	.	.	.	2F	.
.	.	.	4B-y	.	.
=24	=24	=24	=24	=24	=24
1r	0r	0r	4c	2.A	0f]
.	.	.	4d	.	.
.	.	.	2.c	.	.
.	.	.	.	4B-y	.
1F	.	.	.	4c	.
.	.	.	4B-y	4d	.
.	.	.	2A	[2c	.
=25	=25	=25	=25	=25	=25
1E	0r	0r	1G	4c]	1r
.	.	.	.	4d	.
.	.	.	.	8cL	.
.	.	.	.	8B-y	.
.	.	.	.	8A	.
.	.	.	.	8GJ	.
1D	.	.	1d	[1F	1a
=26	=26	=26	=26	=26	=26
1F	0r	0r	2d	1F]	0a
.	.	.	2d	.	.
1F	.	.	[1c	1f	.
=27	=27	=27	=27	=27	=27
0C	0r	0r	2c]	1f	0g
.	.	.	4B-y	.	.
.	.	.	4A	.	.
.	.	.	1G	1e	.
=28	=28	=28	=28	=28	=28
0r	0F	0r	[0A	1f	0f
.	.	.	.	2.F	.
.	.	.	.	4G	.
=29	=29	=29	=29	=29	=29
1r	1F	0r	1A]	4A	1c
.	.	.	.	4B-y	.
.	.	.	.	1c	.
1F	1D	.	2r	.	1d
.	.	.	2F	2Bni	.
=30	=30	=30	=30	=30	=30
1E	1C	0r	1G	1c	1e
1D	[1F	.	[1A	1r	1f
=31	=31	=31	=31	=31	=31
1F	1F]	0c	2A]	0f	1r
.	.	.	2F	.	.
1F	1F	.	2.A	.	1a
.	.	.	4B-y	.	.
=32	=32	=32	=32	=32	=32
[0C	0r	1c	0c	1e	1g
.	.	1A	.	1e	[1cc
=33	=33	=33	=33	=33	=33
1C]	1r	1G	1r	1.c	2cc]
.	.	.	.	.	4b-y
.	.	.	.	.	4a
1C	1E	[1c	1C	.	1g
.	.	.	.	2B-y	.
=34	=34	=34	=34	=34	=34
1FF	1F	1c]	2C	2.A	0a
.	.	.	2C	.	.
.	.	.	.	4G	.
1FF	1F	1c	[1F	1A	.
=35	=35	=35	=35	=35	=35
1.BB-y	0F	0r	2F]	[0B-y	1f
.	.	.	2E	.	.
.	.	.	2.D	.	[1b-y
2AA	.	.	.	.	.
.	.	.	4C	.	.
=36	=36	=36	=36	=36	=36
0GG	[0G	1r	0D	0B-]	2b-]
.	.	.	.	.	2a
.	.	1B-y	.	.	2.g
.	.	.	.	.	4f
=37	=37	=37	=37	=37	=37
1r	0G]	1c	0C	1r	4e
.	.	.	.	.	4d
.	.	.	.	.	1f
1C	.	1c	.	1G	.
.	.	.	.	.	2e
=38	=38	=38	=38	=38	=38
1FF	[0F	0c	1r	2.A	[0f
.	.	.	.	4G	.
2.F	.	.	1c	2A	.
.	.	.	.	2F	.
4E	.	.	.	.	.
=39	=39	=39	=39	=39	=39
2D	0F]	[0d	1F	2.f	0f]
2C	.	.	.	.	.
.	.	.	.	4e	.
2.BB-y	.	.	[1B-y	2d	.
.	.	.	.	2c	.
4AA	.	.	.	.	.
=40	=40	=40	=40	=40	=40
2GG	0r	0d]	2B-]	2B-y	0r
2FF	.	.	2A	1c	.
1GG	.	.	1G	.	.
.	.	.	.	2Bni	.
=41	=41	=41	=41	=41	=41
1r	1r	[0c	1C	1c	1r
1C	1E	.	2r	1G	1g
.	.	.	[2C	.	.
=42	=42	=42	=42	=42	=42
0FF	1F	0c]	2C]	1r	1.a
.	.	.	2C	.	.
.	1F	.	[1F	1c	.
.	.	.	.	.	2g
=43	=43	=43	=43	=43	=43
1.BB-y	0F	0r	2F]	1d	1f
.	.	.	2E	.	.
.	.	.	2.D	1d	[1b-y
2AA	.	.	.	.	.
.	.	.	4C	.	.
=44	=44	=44	=44	=44	=44
0GG	[0G	1r	0D	2.B-y	2b-]
.	.	.	.	.	2a
.	.	.	.	4c	.
.	.	1B-y	.	1d	2.g
.	.	.	.	.	4f
=45	=45	=45	=45	=45	=45
1r	0G]	1c	0C	1r	4e
.	.	.	.	.	4d
.	.	.	.	.	1f
1C	.	1c	.	1G	.
.	.	.	.	.	2e
=46	=46	=46	=46	=46	=46
1FF	[0Fl	0c	1.c	1A	[0fl
[1F	.	.	.	1F	.
.	.	.	2B-y	.	.
=47	=47	=47	=47	=47	=47
2F]	0F_	[0d	2A	1.f	0f_
2E	.	.	2G	.	.
2D	.	.	[1F	.	.
2C	.	.	.	2e	.
=48	=48	=48	=48	=48	=48
0BB-y	0F_	0d]	2F]	2d	0f_
.	.	.	8FL	2c	.
.	.	.	8E	.	.
.	.	.	8D	.	.
.	.	.	8CJ	.	.
.	.	.	2.D	1B-y	.
.	.	.	4E	.	.
=49	=49	=49	=49	=49	=49
[0FFl	0F_	[0cl	4F	[0Al	0f_
.	.	.	4G	.	.
.	.	.	1F	.	.
.	.	.	4E	.	.
.	.	.	4D	.	.
=	=	=	=	=	=
00FF]	00F]	00c]	00C	00A]	00f]
=||	=||	=||	=||	=||	=||
*M2/1	*M2/1	*M2/1	*M2/1	*M2/1	*M2/1
*met(C|)	*met(C|)	*met(C|)	*met(C|)	*met(C|)	*met(C|)
!!section: et tibi reddetur votum
!!!OMD: et tibi reddetur votum
!	!LO:TX:a:t=Canon&colon; tenor III/tenor II at the fifth	!	!	!	!
0F	0r	0r	0A	0c	0f
=50	=50	=50	=50	=50	=50
1C	0r	0r	1c	1e	1g
1F	.	.	1c	1f	1a
=51	=51	=51	=51	=51	=51
1F	0r	0r	1c	1f	1a
2F	.	.	2c	2f	1a
2F	.	.	2c	2f	.
=52	=52	=52	=52	=52	=52
1F	0F	0r	1A	2c	2a
.	.	.	.	2.f	2a
2D	.	.	1F	.	[1a
.	.	.	.	4e	.
[2F	.	.	.	4d	.
.	.	.	.	4c	.
=53	=53	=53	=53	=53	=53
4F]	1F	0r	0r	2d	2a]
4E	.	.	.	.	.
4D	.	.	.	1c	8aL
.	.	.	.	.	8g
4C	.	.	.	.	8f
.	.	.	.	.	8eJ
1D	1F	.	.	.	1f
.	.	.	.	2Bni	.
=54	=54	=54	=54	=54	=54
0C	0G	0r	1r	1.c	1.e
.	.	.	1G	.	.
.	.	.	.	2c	2e
=55	=55	=55	=55	=55	=55
1r	0F	0c	2.A	2.c	2.f
.	.	.	4G	4B-y	4e
1FF	.	.	1F	1A	2c
.	.	.	.	.	2d
=56	=56	=56	=56	=56	=56
1C	[0G	1c	1E	1G	0e
1C	.	1c	[1G	1r	.
=57	=57	=57	=57	=57	=57
0BB-y	0G]	0d	2G]	0r	0r
.	.	.	4F	.	.
.	.	.	4E	.	.
.	.	.	1D	.	.
=58	=58	=58	=58	=58	=58
1AA	[0A	0c	0E	1r	1r
1AA	.	.	.	2r	1e
.	.	.	.	2A	.
=59	=59	=59	=59	=59	=59
1D	0A]	[0d	1r	2A	1f
.	.	.	.	2A	.
1D	.	.	2r	4F	2f
.	.	.	.	4E	.
.	.	.	2D	4F	[2f
.	.	.	.	4G	.
=60	=60	=60	=60	=60	=60
0D	0r	0d]	2F	1A	4f]
.	.	.	.	.	4e
.	.	.	2F	.	4d
.	.	.	.	.	4c
.	.	.	1F	2A	1d
.	.	.	.	2A	.
=61	=61	=61	=61	=61	=61
1AA	[0A	[0e	1.E	2A	1c
.	.	.	.	2A	.
1AA	.	.	.	1E	1c
.	.	.	2E	.	.
=62	=62	=62	=62	=62	=62
2.AA	1A]	0e]	2.E	2A	2.c
.	.	.	.	4G	.
4AA	.	.	4D	4F	4c
2AA	1A	.	2C	1E	2c
2AA	.	.	2C	.	2c
=63	=63	=63	=63	=63	=63
0GG	0B-y	0r	0G	1r	0d
.	.	.	.	2r	.
.	.	.	.	2G	.
=64	=64	=64	=64	=64	=64
1C	[0G	[0e	1E	2G	0c
.	.	.	.	2G	.
2r	.	.	1C	[1c	.
2C	.	.	.	.	.
=65	=65	=65	=65	=65	=65
1C	0G]	1e]	2r	1c]	2r
.	.	.	2G	.	2cc
2C	.	1e	2E	[1c	2cc
2C	.	.	2E	.	2cc
=66	=66	=66	=66	=66	=66
2.F	[0Fl	0f	0A	2c]	2a
.	.	.	.	2c	2a
4E	.	.	.	.	.
2D	.	.	.	2d	1f
2C	.	.	.	2e	.
=67	=67	=67	=67	=67	=67
0BB-y	0F_	[0d	1r	2.f	2.b-y
.	.	.	.	4e	4a
.	.	.	1D	4d	4b-y
.	.	.	.	4c	4cc
.	.	.	.	[2B-y	[2dd
=68	=68	=68	=68	=68	=68
0BB-y	0F_	0d]	1F	2B-]	4dd]
.	.	.	.	.	4cc
.	.	.	.	4A	1cc
.	.	.	.	4G	.
.	.	.	[1F	2.F	.
.	.	.	.	.	2bni
.	.	.	.	4G	.
=69	=69	=69	=69	=69	=69
[0FFl	0F_	[0cl	2F]	[0Al	[0ccl
.	.	.	2C	.	.
.	.	.	2F	.	.
.	.	.	4E	.	.
.	.	.	4D	.	.
=70	=70	=70	=70	=70	=70
00FF]	00F]	00c]	00Cl	00A]	00cc]
==	==	==	==	==	==
*-	*-	*-	*-	*-	*-
!!!system-decoration: [*]
!!!RDF**kern: i = editorial accidental
!!!RDF**kern: l = terminal long
!!!ENC: Benjamin Ory
!!!END: 2021/3/5
!!!EED: Benjamin Ory
!!!EEV: 2021/05/02
!!!YEC: Copyright 2021 Benjamin Ory, All Rights Reserved
!!!ONB: Translated from MusicXML on 2021/05/02
